studios/hbo/thumb.svg

<?xml version="1.0" encoding="UTF-8" standalone="no"?>
<svg
   width="1000"
   height="562"
   viewBox="0 0 264.58333 148.69584"
   version="1.1"
   id="svg8"
   inkscape:version="1.2 (dc2aedaf03, 2022-05-15)"
   sodipodi:docname="thumb.svg"
   xml:space="preserve"
   xmlns:inkscape="http://www.inkscape.org/namespaces/inkscape"
   xmlns:sodipodi="http://sodipodi.sourceforge.net/DTD/sodipodi-0.dtd"
   xmlns:xlink="http://www.w3.org/1999/xlink"
   xmlns="http://www.w3.org/2000/svg"
   xmlns:svg="http://www.w3.org/2000/svg"
   xmlns:rdf="http://www.w3.org/1999/02/22-rdf-syntax-ns#"
   xmlns:cc="http://creativecommons.org/ns#"
   xmlns:dc="http://purl.org/dc/elements/1.1/"><defs
     id="defs2"><inkscape:path-effect
       effect="fillet_chamfer"
       id="path-effect2883"
       is_visible="true"
       lpeversion="1"
       satellites_param="F,0,0,1,0,5.2916667,0,1 @ F,0,0,1,0,5.2916667,0,1 @ F,0,0,1,0,5.2916667,0,1 @ F,0,0,1,0,5.2916667,0,1"
       unit="px"
       method="auto"
       mode="F"
       radius="20"
       chamfer_steps="1"
       flexible="false"
       use_knot_distance="true"
       apply_no_radius="true"
       apply_with_radius="true"
       only_selected="false"
       hide_knots="false"
       nodesatellites_param="F,0,0,1,0,5.2916667,0,1 @ F,0,0,1,0,5.2916667,0,1 @ F,0,0,1,0,5.2916667,0,1 @ F,0,0,1,0,5.2916667,0,1" /><inkscape:path-effect
       effect="fillet_chamfer"
       id="path-effect2864"
       is_visible="true"
       lpeversion="1"
       satellites_param="F,0,0,1,0,5.2916667,0,1 @ F,0,0,1,0,5.2916667,0,1 @ F,0,0,1,0,5.2916667,0,1 @ F,0,0,1,0,5.2916667,0,1"
       unit="px"
       method="auto"
       mode="F"
       radius="20"
       chamfer_steps="1"
       flexible="false"
       use_knot_distance="true"
       apply_no_radius="true"
       apply_with_radius="true"
       only_selected="false"
       hide_knots="false"
       nodesatellites_param="F,0,0,1,0,5.2916667,0,1 @ F,0,0,1,0,5.2916667,0,1 @ F,0,0,1,0,5.2916667,0,1 @ F,0,0,1,0,5.2916667,0,1" /><inkscape:path-effect
       effect="fillet_chamfer"
       id="path-effect2862"
       is_visible="true"
       lpeversion="1"
       satellites_param="F,0,0,1,0,0,0,1 @ F,0,0,1,0,0,0,1 @ F,0,0,1,0,0,0,1 @ F,0,0,1,0,0,0,1"
       unit="px"
       method="auto"
       mode="F"
       radius="0"
       chamfer_steps="1"
       flexible="false"
       use_knot_distance="true"
       apply_no_radius="true"
       apply_with_radius="true"
       only_selected="false"
       hide_knots="false"
       nodesatellites_param="F,0,0,1,0,0,0,1 @ F,0,0,1,0,0,0,1 @ F,0,0,1,0,0,0,1 @ F,0,0,1,0,0,0,1" /><inkscape:path-effect
       effect="fillet_chamfer"
       id="path-effect1088"
       is_visible="true"
       lpeversion="1"
       satellites_param="F,0,0,1,0,5.2916667,0,1 @ F,0,0,1,0,5.2916667,0,1 @ F,0,0,1,0,5.2916667,0,1 @ F,0,0,1,0,5.2916667,0,1"
       unit="px"
       method="auto"
       mode="F"
       radius="20"
       chamfer_steps="1"
       flexible="false"
       use_knot_distance="true"
       apply_no_radius="true"
       apply_with_radius="true"
       only_selected="false"
       hide_knots="false"
       nodesatellites_param="F,0,0,1,0,5.2916667,0,1 @ F,0,0,1,0,5.2916667,0,1 @ F,0,0,1,0,5.2916667,0,1 @ F,0,0,1,0,5.2916667,0,1" /><inkscape:path-effect
       effect="fillet_chamfer"
       id="path-effect1308"
       is_visible="true"
       lpeversion="1"
       satellites_param="F,1,0,1,0,0.04,0,1 @ F,1,0,1,0,0.04,0,1 @ F,1,0,1,0,0.04,0,1 @ F,1,0,1,0,0.04,0,1"
       unit="px"
       method="auto"
       mode="F"
       radius="4"
       chamfer_steps="1"
       flexible="true"
       use_knot_distance="true"
       apply_no_radius="true"
       apply_with_radius="true"
       only_selected="false"
       hide_knots="false"
       nodesatellites_param="F,1,0,1,0,0.04,0,1 @ F,1,0,1,0,0.04,0,1 @ F,1,0,1,0,0.04,0,1 @ F,1,0,1,0,0.04,0,1" /><inkscape:path-effect
       effect="fillet_chamfer"
       id="path-effect1306"
       is_visible="true"
       lpeversion="1"
       satellites_param="F,1,0,1,0,0.03,0,1 @ F,1,0,1,0,0.03,0,1 @ F,1,0,1,0,0.03,0,1 @ F,1,0,1,0,0.03,0,1"
       unit="px"
       method="auto"
       mode="F"
       radius="3"
       chamfer_steps="1"
       flexible="true"
       use_knot_distance="true"
       apply_no_radius="true"
       apply_with_radius="true"
       only_selected="false"
       hide_knots="false"
       nodesatellites_param="F,1,0,1,0,0.03,0,1 @ F,1,0,1,0,0.03,0,1 @ F,1,0,1,0,0.03,0,1 @ F,1,0,1,0,0.03,0,1" /><inkscape:path-effect
       effect="fillet_chamfer"
       id="path-effect1210"
       is_visible="true"
       lpeversion="1"
       satellites_param="F,1,0,1,0,0.02,0,1 @ F,1,0,1,0,0.02,0,1 @ F,1,0,1,0,0.02,0,1 @ F,1,0,1,0,0.02,0,1"
       unit="px"
       method="auto"
       mode="F"
       radius="2"
       chamfer_steps="1"
       flexible="true"
       use_knot_distance="true"
       apply_no_radius="true"
       apply_with_radius="true"
       only_selected="false"
       hide_knots="false"
       nodesatellites_param="F,1,0,1,0,0.02,0,1 @ F,1,0,1,0,0.02,0,1 @ F,1,0,1,0,0.02,0,1 @ F,1,0,1,0,0.02,0,1" /><inkscape:path-effect
       effect="fillet_chamfer"
       id="path-effect1191"
       is_visible="true"
       lpeversion="1"
       satellites_param="F,1,0,1,0,0.03,0,1 @ F,1,0,1,0,0.03,0,1 @ F,1,0,1,0,0.03,0,1 @ F,1,0,1,0,0.03,0,1"
       unit="px"
       method="auto"
       mode="F"
       radius="3"
       chamfer_steps="1"
       flexible="true"
       use_knot_distance="true"
       apply_no_radius="true"
       apply_with_radius="true"
       only_selected="false"
       hide_knots="false"
       nodesatellites_param="F,1,0,1,0,0.03,0,1 @ F,1,0,1,0,0.03,0,1 @ F,1,0,1,0,0.03,0,1 @ F,1,0,1,0,0.03,0,1" /><linearGradient
       inkscape:collect="always"
       id="linearGradient847"><stop
         style="stop-color:#ffffff;stop-opacity:1;"
         offset="0"
         id="stop843" /><stop
         style="stop-color:#ededed;stop-opacity:1;"
         offset="1"
         id="stop845" /></linearGradient><radialGradient
       inkscape:collect="always"
       xlink:href="#linearGradient847"
       id="radialGradient849"
       cx="26.375103"
       cy="97.113945"
       fx="26.375103"
       fy="97.113945"
       r="132.29167"
       gradientTransform="matrix(0,1.1515333,-2.0099162,0,221.56598,-12.967733)"
       gradientUnits="userSpaceOnUse" /></defs><sodipodi:namedview
     id="base"
     pagecolor="#757575"
     bordercolor="#666666"
     borderopacity="1.0"
     inkscape:pageopacity="1"
     inkscape:pageshadow="2"
     inkscape:zoom="1"
     inkscape:cx="257.5"
     inkscape:cy="286"
     inkscape:document-units="mm"
     inkscape:current-layer="layer1"
     inkscape:document-rotation="0"
     showgrid="false"
     units="px"
     inkscape:showpageshadow="false"
     inkscape:pagecheckerboard="false"
     inkscape:lockguides="true"
     inkscape:window-width="1920"
     inkscape:window-height="1017"
     inkscape:window-x="-8"
     inkscape:window-y="-8"
     inkscape:window-maximized="1"
     showguides="true"
     inkscape:guide-bbox="true"
     inkscape:deskcolor="#757575"><sodipodi:guide
       position="0,148.69584"
       orientation="0,1000"
       inkscape:locked="true"
       id="guide1270" /><sodipodi:guide
       position="264.58334,148.69584"
       orientation="562,0"
       inkscape:locked="true"
       id="guide1272" /><sodipodi:guide
       position="264.58334,0"
       orientation="0,-1000"
       inkscape:locked="true"
       id="guide1274" /><sodipodi:guide
       position="0,0"
       orientation="-562,0"
       inkscape:locked="true"
       id="guide1276" /><sodipodi:guide
       position="21.201605,127.26459"
       orientation="0,1"
       id="guide2557"
       inkscape:label=""
       inkscape:locked="true"
       inkscape:color="rgb(0,0,255)" /><sodipodi:guide
       position="-33.82728,21.43125"
       orientation="0,1"
       id="guide2559"
       inkscape:label=""
       inkscape:locked="true"
       inkscape:color="rgb(0,0,255)" /><sodipodi:guide
       position="39.687501,148.69584"
       orientation="-1,0"
       id="guide2561"
       inkscape:label=""
       inkscape:locked="true"
       inkscape:color="rgb(0,0,255)" /><sodipodi:guide
       position="224.89584,148.69584"
       orientation="-1,0"
       id="guide2563"
       inkscape:label=""
       inkscape:locked="true"
       inkscape:color="rgb(0,0,255)" /></sodipodi:namedview><metadata
     id="metadata5"><rdf:RDF><cc:Work
         rdf:about=""><dc:format>image/svg+xml</dc:format><dc:type
           rdf:resource="http://purl.org/dc/dcmitype/StillImage" /></cc:Work></rdf:RDF></metadata><g
     inkscape:label="Layer 1"
     inkscape:groupmode="layer"
     id="layer1"><rect
       style="opacity:0.98;fill:url(#radialGradient849);fill-opacity:1;stroke-width:1.61952"
       id="background"
       width="264.58334"
       height="148.69583"
       x="-5.0862632e-06"
       y="-4.7961635e-14" /><g
       id="logo"
       stroke="none"
       stroke-width="1"
       fill="none"
       fill-rule="evenodd"
       transform="matrix(0.36203129,0,0,0.36203129,39.687496,36.191537)"><polyline
         id="Fill-15"
         fill="#000000"
         points="148 206 92.7748343 206 92.7748343 127.236832 56.9262346 127.236832 56.9262346 206 0 206 0 3 56.9262346 3 56.9262346 78.5141926 92.7748343 78.5141926 92.7748343 3 148 3 148 206"
         transform="scale(1.0150417,1.0183117)" /><path
         d="m 407.03751,146.25835 c 22.74616,0 41.18655,-18.48231 41.18655,-41.28778 0,-22.799359 -18.44039,-41.284724 -41.18655,-41.284724 -22.74918,0 -41.18755,18.485365 -41.18755,41.284724 0,22.80547 18.43837,41.28778 41.18755,41.28778 z m -52.39287,-41.28778 c 0,-29.003142 23.45567,-52.51778 52.39287,-52.51778 28.93621,0 52.39593,23.514638 52.39593,52.51778 0,29.00823 -23.45972,52.52185 -52.39593,52.52185 -28.9372,0 -52.39287,-23.51362 -52.39287,-52.52185 z m -72.95472,0 c 6.48297,-0.82297 17.28995,-8.253081 21.09702,-12.995836 -1.33794,5.880691 -1.44032,22.900966 0.12367,28.781656 -4.34529,-6.7057 -14.63332,-14.9598 -21.22069,-15.78582 z M 244.0236,49.370203 c 8.23346,0 14.71745,8.147419 14.71745,17.432774 0,9.285356 -6.48399,17.437855 -14.71745,17.437855 H 215.72395 V 49.370203 Z m -0.10338,77.471097 c 8.23244,0 14.71744,8.15148 14.71744,17.43379 0,9.28637 -6.485,17.43481 -14.71744,17.43481 h -28.29966 v -34.8686 z m 163.08283,83.94921 C 464.66766,210.76815 511.5942,162.74115 511.58103,104.92994 511.56987,45.899497 464.66766,0.04371976 407.00305,5.4946177e-7 349.40535,-0.04162544 319.97554,42.458256 312.70398,59.612644 312.7719,33.860743 287.45121,3.4646403 257.83287,3.4321278 h -95.4262 V 209.76331 l 88.96958,0.0173 c 35.87021,0 61.39463,-31.15609 61.43822,-57.87219 8.18784,16.81403 36.59088,58.90243 94.18858,58.88211 z"
         id="Fill-16"
         fill="#000000"
         style="stroke-width:1.01668" /></g><path
       id="border"
       style="fill:#000000;fill-opacity:1;opacity:0.98;stroke-width:85.9894"
       d="M 40 25 A 15 16 0 0 0 25 41 L 25 521 A 15 16 0 0 0 40 537 L 960 537 A 15 16 0 0 0 975 521 L 975 41 A 15 16 0 0 0 960 25 L 40 25 z M 52.5 37.5 L 947.5 37.5 A 15 16 0 0 1 962.5 53.5 L 962.5 508.5 A 15 16 0 0 1 947.5 524.5 L 52.5 524.5 A 15 16 0 0 1 37.5 508.5 L 37.5 53.5 A 15 16 0 0 1 52.5 37.5 z "
       transform="scale(0.26458333)" /></g></svg>

<svg xmlns="http://www.w3.org/2000/svg" xmlns:xlink="http://www.w3.org/1999/xlink" xml:space="preserve" width="1000" height="562" viewBox="0 0 264.583 148.696"><defs><radialGradient xlink:href="#a" id="b" cx="26.375" cy="97.114" r="132.292" fx="26.375" fy="97.114" gradientTransform="matrix(0 1.15153 -2.00992 0 221.566 -12.968)" gradientUnits="userSpaceOnUse"/><linearGradient id="a"><stop offset="0" style="stop-color:#fff;stop-opacity:1"/><stop offset="1" style="stop-color:#ededed;stop-opacity:1"/></linearGradient></defs><path d="M0 0h264.583v148.696H0z" style="opacity:.98;fill:url(#b);fill-opacity:1;stroke-width:1.61952"/><g fill-rule="evenodd"><path d="M94.074 112.136H73.78V83.099H60.607v29.037h-20.92V37.298h20.92v27.839H73.78v-27.84h20.294z"/><path d="M407.038 146.258c22.746 0 41.186-18.482 41.186-41.287 0-22.8-18.44-41.285-41.186-41.285-22.75 0-41.188 18.485-41.188 41.285 0 22.805 18.438 41.287 41.188 41.287m-52.393-41.287c0-29.004 23.455-52.518 52.393-52.518 28.936 0 52.395 23.514 52.395 52.518 0 29.008-23.46 52.521-52.395 52.521-28.938 0-52.393-23.513-52.393-52.521m-72.955 0c6.483-.823 17.29-8.254 21.097-12.996-1.338 5.88-1.44 22.9.124 28.781-4.346-6.705-14.634-14.96-21.221-15.785m-37.666-55.6c8.233 0 14.717 8.147 14.717 17.432s-6.484 17.438-14.717 17.438h-28.3V49.37Zm-.104 77.47c8.233 0 14.718 8.152 14.718 17.434 0 9.286-6.485 17.435-14.718 17.435h-28.3v-34.87zm163.083 83.95c57.665-.023 104.591-48.05 104.578-105.861C511.57 45.9 464.668.044 407.003 0c-57.598-.042-87.027 42.458-94.299 59.613.068-25.752-25.253-56.148-54.871-56.18h-95.426v206.33l88.97.018c35.87 0 61.394-31.156 61.437-57.873 8.188 16.814 36.591 58.903 94.19 58.883" style="stroke-width:1.01668" transform="translate(39.687 36.192)scale(.36203)"/></g><path d="M40 25a15 16 0 0 0-15 16v480a15 16 0 0 0 15 16h920a15 16 0 0 0 15-16V41a15 16 0 0 0-15-16zm12.5 12.5h895a15 16 0 0 1 15 16v455a15 16 0 0 1-15 16h-895a15 16 0 0 1-15-16v-455a15 16 0 0 1 15-16" style="fill:#000;fill-opacity:1;opacity:.98;stroke-width:85.9894" transform="scale(.26458)"/></svg>
